X: 163
T: 164. Herr Gott, dich loben alle wir
N: Derived from chor164.krn
C: Johann Sebastian Bach
%%abc-version 2.0
%%abcx-abcm2ps-target-version 5.9.1 (29 Sep 2008)
%%abc-creator hum2abc beta
%%abcx-conversion-date 2019/03/11 17:28:18
%%abc-edited-by Craig Stuart Sapp
%%humdrum-veritas 1694483656
%%humdrum-veritas-data 3341918261
%%
%%barnumbers 0
L: 1/8
M: 3/4
%%staves [1 2 3 4]
V: 1 clef=treble
V: 2 clef=treble
V: 3 clef=treble-8
V: 4 clef=bass
K: Bb
[V:1] B2 [I:setbarnb 1]| 
[V:2] F2 | 
[V:3] d2 | 
[V:4] B,,A,, | 
[V:1] B4A2 | 
[V:2] G4F2 | 
[V:3] d4d2 | 
[V:4] G,,A,,B,,C,D,B,, | 
[V:1] G4F2 | 
[V:2] E4D2 | 
[V:3] B4B2 | 
[V:4] E,F,G,A,B,A, | 
[V:1] B2c4 | 
[V:2] D2G2F2 | 
[V:3] B4A2 | 
[V:4] G,F,E,D,E,F, | 
[V:1] !fermata!d4d2 | 
[V:2] !fermata!F4A2 | 
[V:3] !fermata!B4A2 | 
[V:4] !fermata!B,,4^F,,2 | 
[V:1] d4d2 | 
[V:2] G4G2 | 
[V:3] B4B2 | 
[V:4] G,,D,G,=F,E,D, | 
[V:1] c4d2 | 
[V:2] G2F2F2 | 
[V:3] B2A2B2 | 
[V:4] E,C,F,E,D,C, | 
[V:1] e2d4 | 
[V:2] F2F4 | 
[V:3] c2B4 | 
[V:4] B,,A,,B,,C,D,E, | 
[V:1] !fermata!c4B2 | 
[V:2] !fermata!F4G2 | 
[V:3] !fermata!A4d2 | 
[V:4] !fermata!F,4G,2 | 
[V:1] c4d2 | 
[V:2] F4FB | 
[V:3] c4B2 | 
[V:4] A,F,G,A,B,G, | 
[V:1] c4B2 | 
[V:2] G2FED2 | 
[V:3] B2A2B2 | 
[V:4] E,D,E,F,G,D, | 
[V:1] G2A4 | 
[V:2] G2G2^F2 | 
[V:3] Bde2d2 | 
[V:4] E,B,,C,A,,D,D,, | 
[V:1] !fermata!B4f2 | 
[V:2] !fermata!G4=F2 | 
[V:3] !fermata!d4c2 | 
[V:4] !fermata!G,4A,2 | 
[V:1] d4B2 | 
[V:2] F4G2 | 
[V:3] d4d2 | 
[V:4] B,CB,A,G,F, | 
[V:1] c4e2 | 
[V:2] F4F2 | 
[V:3] A4A2 | 
[V:4] E,G,F,E,D,C, | 
[V:1] d2c4 | 
[V:2] F2G2FE | 
[V:3] B4A2 | 
[V:4] B,,D, E,C, F,F,, | 
[V:1] !fermata!B4 |]  
[V:2] !fermata!D4 |]  
[V:3] !fermata!F4 |]  
[V:4] !fermata!B,,4 |]  



